src/svg/media-eject-outline.svg

<svg version="1.2" baseProfile="tiny" xmlns="http://www.w3.org/2000/svg" width="24" height="24" viewBox="0 0 24 24"><g><path d="M16 21h-8c-1.654 0-3-1.346-3-3s1.346-3 3-3h8c1.654 0 3 1.346 3 3s-1.346 3-3 3zm-8-4c-.551 0-1 .448-1 1s.449 1 1 1h8c.551 0 1-.448 1-1s-.449-1-1-1h-8zM12 6.866l4.964 5.096.036.038-10 .004.08-.087 4.92-5.051m0-2.866s-3.859 3.963-6.433 6.604c-.349.363-.567.853-.567 1.396 0 1.104.896 2 2 2h10c1.104 0 2-.896 2-2 0-.543-.218-1.033-.568-1.393-2.573-2.644-6.432-6.607-6.432-6.607z"/></g></svg>

<?xml version="1.0" encoding="iso-8859-1"?>
<!-- Generator: Adobe Illustrator 16.2.1, SVG Export Plug-In . SVG Version: 6.00 Build 0)  -->
<svg version="1.2" baseProfile="tiny" xmlns="http://www.w3.org/2000/svg" xmlns:xlink="http://www.w3.org/1999/xlink" x="0px"
	 y="0px" width="24px" height="24px" viewBox="0 0 24 24" xml:space="preserve">
<g id="Layer_1">
	<g>
		<path d="M16,21H8c-1.654,0-3-1.346-3-3s1.346-3,3-3h8c1.654,0,3,1.346,3,3S17.654,21,16,21z M8,17c-0.551,0-1,0.448-1,1
			s0.449,1,1,1h8c0.551,0,1-0.448,1-1s-0.449-1-1-1H8z"/>
	</g>
	<g>
		<path d="M12,6.866l4.964,5.096C16.976,11.975,16.988,11.987,17,12L7,12.004c0.027-0.028,0.054-0.058,0.08-0.087L12,6.866 M12,4
			c0,0-3.859,3.963-6.433,6.604C5.218,10.967,5,11.457,5,12c0,1.104,0.896,2,2,2h10c1.104,0,2-0.896,2-2
			c0-0.543-0.218-1.033-0.568-1.393C15.859,7.963,12,4,12,4z"/>
	</g>
</g>
<g id="nyt_x5F_exporter_x5F_info" display="none">
</g>
</svg>
